X:1
T:Title
%%score { 1 | ( 2 3 ) }
L:1/8
Q:1/4=100
M:4/4
K:D
V:1 treble nm="Grand Piano"
V:2 bass 
V:3 bass 
V:1
 F4 F2 F2 | [FA]3 [EG] [DF]4 | [EG]4 [DF]2 [CE]2 | F8 | F4 F2 F2 | [DFA]3 [A,EG] [A,DF]4 | %6
w: Wm.~J.~Kirkpatrick * *||||||
 [A,EG]4 [A,DF]2[K:bass] [G,CE]2 | [F,D]8 | [CE]4 [CE]2 [DF]2 | [EG]3 [EG] [EG]4 | %10
w: ||||
 [DF]4 [DF]2 [EG]2 | [FA]3 [FA] [FA]4 | [Fd]4 [Ac]2 .[B,GB]2 | [DGB]3 [DFA] [DFA]4 | %14
w: ||||
 [DFA]4 [CEG]2[K:bass] .[A,CE]2 | [F,D]8 |] %16
w: ||
V:2
 [D,A,D]4 [D,A,D]2 [D,A,D]2 | [D,D]3 [D,A,] [D,A,]4 | [A,,A,]4 [A,,A,]2 [A,,A,]2 | [D,A,D]8 | %4
 [D,A,D]4 [D,A,D]2 [D,A,D]2 | D,3 D, D,4 | A,,4 A,,2 A,,2 | D,8 | [A,,A,]4 [A,,A,]2 [A,,A,]2 | %9
 [A,,A,]3 [A,,A,] [A,,A,]4 | [D,A,]4 [D,A,]2 [D,A,]2 | [D,D]3 [D,D] [D,D]4 | [D,A,]4 [D,A,]2 z C | %13
 D,3 D, D,2 F,2 | A,4 A,,2 z G, | D,8 |] %16
V:3
 x8 | x8 | x8 | x8 | x8 | x8 | x8 | x8 | x8 | x8 | x8 | x8 | z4 z2 D,2 | x8 | z4 z2 A,,2 | x8 |] %16

